src/assets/svg/cls.svg

<svg width="32" height="32" viewBox="0 0 32 32" fill="none" xmlns="http://www.w3.org/2000/svg">
<path d="M7.19191 7.19188C7.63823 6.74557 8.36184 6.74557 8.80816 7.19188L16 14.3829L23.1919 7.19188C23.6039 6.7799 24.2522 6.74821 24.7005 7.09681L24.8082 7.19188C25.2545 7.6382 25.2545 8.36181 24.8082 8.80813L17.6172 16L24.8082 23.1919C25.2201 23.6039 25.2518 24.2521 24.9032 24.7005L24.8082 24.8081C24.3618 25.2544 23.6382 25.2544 23.1919 24.8081L16 17.6171L8.80816 24.8081C8.39617 25.2201 7.74791 25.2518 7.29958 24.9032L7.19191 24.8081C6.7456 24.3618 6.7456 23.6382 7.19191 23.1919L14.3829 16L7.19191 8.80813C6.77993 8.39614 6.74824 7.74788 7.09684 7.29955L7.19191 7.19188Z" fill="white"/>
</svg>

<svg width="32" height="32" fill="none" xmlns="http://www.w3.org/2000/svg"><path d="M7.192 7.192a1.143 1.143 0 011.616 0L16 14.382l7.192-7.19a1.143 1.143 0 011.509-.095l.107.095c.447.446.447 1.17 0 1.616L17.618 16l7.19 7.192c.412.412.444 1.06.095 1.509l-.095.107a1.143 1.143 0 01-1.616 0L16 17.618l-7.192 7.19a1.143 1.143 0 01-1.508.095l-.108-.095a1.143 1.143 0 010-1.616L14.382 16l-7.19-7.192A1.143 1.143 0 017.097 7.3l.095-.108z" fill="#fff"/></svg>
